assets/src/edit-story/icons/pause.svg

<svg fill="none" height="48" viewBox="0 0 48 48" width="48" xmlns="http://www.w3.org/2000/svg"><path clip-rule="evenodd" d="m24.0013.665039c-12.88 0-23.333331 10.453361-23.333331 23.333361s10.453331 23.3333 23.333331 23.3333 23.3333-10.4533 23.3333-23.3333-10.4533-23.333361-23.3333-23.333361zm-2.334 32.666661h-4.6666v-18.6667h4.6666zm4.668 0h4.6667v-18.6667h-4.6667z" fill="#fff" fill-rule="evenodd"/></svg>

<svg width="48" height="48" viewBox="0 0 48 48" fill="none" xmlns="http://www.w3.org/2000/svg">
  <path fill-rule="evenodd" clip-rule="evenodd" d="M24.0013 0.665039C11.1213 0.665039 0.667969 11.1184 0.667969 23.9984C0.667969 36.8784 11.1213 47.3317 24.0013 47.3317C36.8813 47.3317 47.3346 36.8784 47.3346 23.9984C47.3346 11.1184 36.8813 0.665039 24.0013 0.665039ZM21.6673 33.3317H17.0007V14.665H21.6673V33.3317ZM26.3353 33.3317H31.002V14.665H26.3353V33.3317Z" fill="white"/>
</svg>
